packages/ui/public/icons/post-poll-icon.svg

<svg width="20" height="20" viewBox="0 0 20 20" fill="none" xmlns="http://www.w3.org/2000/svg">
  <path opacity="0.4" d="M7.5 5.83301H3.83333C3.36662 5.83301 3.13327 5.83301 2.95501 5.92383C2.79821 6.00373 2.67072 6.13122 2.59082 6.28802C2.5 6.46627 2.5 6.69963 2.5 7.16634V16.1663C2.5 16.6331 2.5 16.8664 2.59082 17.0447C2.67072 17.2015 2.79821 17.3289 2.95501 17.4088C3.13327 17.4997 3.36662 17.4997 3.83333 17.4997H7.5M12.5 9.16634H16.1667C16.6334 9.16634 16.8668 9.16634 17.045 9.25717C17.2018 9.33709 17.3293 9.46451 17.4092 9.62134C17.5 9.79959 17.5 10.0329 17.5 10.4997V16.1663C17.5 16.6331 17.5 16.8664 17.4092 17.0447C17.3293 17.2015 17.2018 17.3289 17.045 17.4088C16.8668 17.4997 16.6334 17.4997 16.1667 17.4997H12.5" stroke="#FFF" stroke-width="2" stroke-linecap="round" stroke-linejoin="round" />
  <path d="M12.5 3.83333C12.5 3.36662 12.5 3.13327 12.4092 2.95501C12.3292 2.79821 12.2018 2.67072 12.045 2.59082C11.8668 2.5 11.6334 2.5 11.1667 2.5H8.83333C8.36658 2.5 8.13327 2.5 7.95501 2.59082C7.79821 2.67072 7.67072 2.79821 7.59082 2.95501C7.5 3.13327 7.5 3.36662 7.5 3.83333V17.5H12.5V3.83333Z" stroke="#FFFF" stroke-width="2" stroke-linecap="round" stroke-linejoin="round" />
</svg>

<svg width="20" height="20" fill="none" xmlns="http://www.w3.org/2000/svg"><path opacity=".4" d="M7.5 5.833H3.833c-.466 0-.7 0-.878.09a.833.833 0 0 0-.364.365c-.091.178-.091.412-.091.878v9c0 .467 0 .7.09.879.08.156.208.284.365.364.178.09.412.09.878.09H7.5m5-8.333h3.667c.466 0 .7 0 .878.091.157.08.284.208.364.364.091.179.091.412.091.879v5.666c0 .467 0 .7-.09.879a.833.833 0 0 1-.365.364c-.178.09-.412.09-.878.09H12.5" stroke="#FFF" stroke-width="2" stroke-linecap="round" stroke-linejoin="round"/><path d="M12.5 3.833c0-.466 0-.7-.09-.878a.834.834 0 0 0-.365-.364c-.178-.091-.412-.091-.878-.091H8.833c-.466 0-.7 0-.878.09a.833.833 0 0 0-.364.365c-.091.178-.091.412-.091.878V17.5h5V3.833Z" stroke="#FFFF" stroke-width="2" stroke-linecap="round" stroke-linejoin="round"/></svg>
